kora/actions/scalable/view-multiple-objects.svg

<svg xmlns="http://www.w3.org/2000/svg" style="fill-rule:evenodd;clip-rule:evenodd;stroke-linejoin:round;stroke-miterlimit:2" width="100%" height="100%" version="1.1" viewBox="0 0 16 16" xml:space="preserve">
 <defs>
  <style id="current-color-scheme" type="text/css">
   .ColorScheme-Text { color:#dfdfdf; } .ColorScheme-Highlight { color:#4285f4; } .ColorScheme-NeutralText { color:#ff9800; } .ColorScheme-PositiveText { color:#4caf50; } .ColorScheme-NegativeText { color:#f44336; }
  </style>
 </defs>
 <rect style="fill:currentColor;fill-opacity:0.3" class="ColorScheme-Text" width="8" height="6" x="1" y="1"/>
 <path style="fill:currentColor;" class="ColorScheme-Text" d="M1,9l0,6l14,0l0,-6l-14,0Zm10,-8l0,6l4,0l0,-6l-4,0Z"/>
</svg>

<svg xmlns="http://www.w3.org/2000/svg" width="16" height="16" viewBox="0 0 16 16">
 <defs>
  <style id="current-color-scheme" type="text/css">
   .ColorScheme-Text { color:#dfdfdf; } .ColorScheme-Highlight { color:#4285f4; }
  </style>
 </defs>
 <path style="fill:currentColor" class="ColorScheme-Text" d="M 1 1 L 1 7 L 9 7 L 9 1 L 1 1 z M 11 1 L 11 7 L 15 7 L 15 1 L 11 1 z M 1 9 L 1 15 L 15 15 L 15 9 L 1 9 z"/>
</svg>
